Papirus/48x48/apps/libreoffice-base.svg

<?xml version="1.0" encoding="UTF-8" standalone="no"?>
<!-- Created with Inkscape (http://www.inkscape.org/) -->

<svg
   width="48"
   height="48"
   viewBox="0 0 48 48"
   version="1.1"
   id="svg5"
   inkscape:version="1.2.2 (1:1.2.2+202305151914+b0a8486541)"
   sodipodi:docname="libreoffice-base.svg"
   xmlns:inkscape="http://www.inkscape.org/namespaces/inkscape"
   xmlns:sodipodi="http://sodipodi.sourceforge.net/DTD/sodipodi-0.dtd"
   xmlns="http://www.w3.org/2000/svg"
   xmlns:svg="http://www.w3.org/2000/svg">
  <sodipodi:namedview
     id="namedview7"
     pagecolor="#ffffff"
     bordercolor="#000000"
     borderopacity="0.25"
     inkscape:showpageshadow="2"
     inkscape:pageopacity="0.0"
     inkscape:pagecheckerboard="0"
     inkscape:deskcolor="#d1d1d1"
     inkscape:document-units="px"
     showgrid="false"
     inkscape:zoom="17.291667"
     inkscape:cx="24"
     inkscape:cy="24"
     inkscape:window-width="1920"
     inkscape:window-height="1008"
     inkscape:window-x="0"
     inkscape:window-y="0"
     inkscape:window-maximized="1"
     inkscape:current-layer="svg5" />
  <defs
     id="defs2" />
  <path
     d="M 30,5 H 40 V 15 Z M 14,5 h 14 l 12,12 v 22 c 0,3.323996 -2.676,6 -6,6 H 14 C 10.676,45 8,42.324 8,39 V 11 C 8,7.676 10.676,5 14,5 Z"
     style="opacity:0.2;fill:#000000;fill-opacity:1;stroke-width:3;stroke-linecap:square"
     id="path900" />
  <path
     id="rect339"
     style="fill:#8b3ea7;fill-opacity:1;stroke-width:3;stroke-linecap:square"
     d="m 14,4 h 14 l 12,12 v 22 c 0,3.323996 -2.676,6 -6,6 H 14 C 10.676,44 8,41.324 8,38 V 10 C 8,6.676 10.676,4 14,4 Z" />
  <path
     d="M 30,4 H 40 V 14 Z"
     style="fill:#ab63c5;fill-opacity:1;stroke-width:0.625;stroke-linecap:square"
     id="path1087" />
  <path
     d="m 18,19 c -3.10659,0 -6,0.80784 -6,2 v 2 c 0,1.19218 2.89341,2 6,2 3.10659,0 6,-0.80782 6,-2 v -2 c 0,-1.19216 -2.89341,-2 -6,-2 z m 8,2 c -0.55399,0 -1,0.44601 -1,1 v 14 c 0,0.55401 0.44601,1 1,1 h 9 c 0.55399,0 1,-0.44599 1,-1 V 22 c 0,-0.55399 -0.44601,-1 -1,-1 z m 0,1 h 4 v 4 h -4 z m 5,0 h 4 v 4 h -4 z m -19,2 v 3 c 0,1.19218 2.89341,2 6,2 3.10658,0 6,-0.80782 6,-2 v -3 c 0,1.19218 -2.89342,2 -6,2 -3.10659,0 -6,-0.80782 -6,-2 z m 14,3 h 4 v 4 h -4 z m 5,0 h 4 v 4 h -4 z m -19,1 v 3 c 0,1.19218 2.89341,2 6,2 3.10658,0 6,-0.80782 6,-2 v -3 c 0,1.19218 -2.89342,2 -6,2 -3.10659,0 -6,-0.80782 -6,-2 z m 0,4 v 3 c 0,1.19218 2.89341,2 6,2 3.10658,0 6,-0.80782 6,-2 v -3 c 0,1.19218 -2.89342,2 -6,2 -3.10659,0 -6,-0.80782 -6,-2 z m 14,0 h 4 v 4 h -4 z m 5,0 h 4 v 4 h -4 z"
     style="opacity:0.2;fill:#000000;fill-opacity:1;stroke-width:1.67705;stroke-linecap:round;stroke-linejoin:round"
     id="path1880" />
  <path
     d="m 18,18 c -3.10659,0 -6,0.80783 -6,2 v 2 c 0,1.19217 2.89341,2 6,2 3.1066,0 6,-0.80783 6,-2 v -2 c 0,-1.19217 -2.8934,-2 -6,-2 z m -6,5 v 3 c 0,1.19217 2.89341,2 6,2 3.10659,0 6,-0.80783 6,-2 v -3 c 0,1.19217 -2.89341,2 -6,2 -3.10659,0 -6,-0.80783 -6,-2 z m 0,4 v 3 c 0,1.19217 2.89341,2 6,2 3.10659,0 6,-0.80783 6,-2 v -3 c 0,1.19217 -2.89341,2 -6,2 -3.10659,0 -6,-0.80783 -6,-2 z m 0,4 v 3 c 0,1.19217 2.89341,2 6,2 3.10659,0 6,-0.80783 6,-2 v -3 c 0,1.19217 -2.89341,2 -6,2 -3.10659,0 -6,-0.80783 -6,-2 z"
     style="fill:#d48ff7;fill-opacity:1;stroke-width:1.67705;stroke-linecap:round;stroke-linejoin:round"
     id="path1824" />
  <path
     d="m 26,20 c -0.554,0 -1,0.446 -1,1 v 14 c 0,0.554 0.446,1 1,1 h 9 c 0.554,0 1,-0.446 1,-1 V 21 c 0,-0.554 -0.446,-1 -1,-1 z m 0,1 h 4 v 4 h -4 z m 5,0 h 4 v 4 h -4 z m -5,5 h 4 v 4 h -4 z m 5,0 h 4 v 4 h -4 z m -5,5 h 4 v 4 h -4 z m 5,0 h 4 v 4 h -4 z"
     style="fill:#ffffff;stroke-width:0.5"
     id="path1852" />
  <path
     id="path1067"
     style="opacity:0.2;fill:#ffffff;fill-opacity:1;stroke-width:3;stroke-linecap:square"
     d="M 14,4 C 10.676003,4 8,6.6760034 8,10 v 1 C 8,7.6760034 10.676003,5 14,5 H 29 L 28,4 Z m 16,0 1,1 h 9 V 4 Z" />
</svg>

<svg xmlns="http://www.w3.org/2000/svg" width="48" height="48" version="1.1">
 <path style="opacity:0.2" d="M 14,5 H 28 L 40,17 V 39 C 40,42.324 37.324,45 34,45 H 14 C 10.676,45 8,42.324 8,39 V 11 C 8,7.676 10.676,5 14,5 Z"/>
 <path style="fill:#8b3ea7" d="M 14,4 H 28 L 40,16 V 38 C 40,41.324 37.324,44 34,44 H 14 C 10.676,44 8,41.324 8,38 V 10 C 8,6.676 10.676,4 14,4 Z"/>
 <path style="fill:#ab63c5" d="M 30,4 H 40 V 14 Z"/>
 <path style="opacity:0.2" d="M 18 19 C 14.89 19 12 19.81 12 21 L 12 23 C 12 24.19 14.89 25 18 25 C 21.11 25 24 24.19 24 23 L 24 21 C 24 19.81 21.11 19 18 19 z M 26 22 C 25.446 22 25 22.446 25 23 L 25 36 C 25 36.554 25.446 37 26 37 L 35 37 C 35.554 37 36 36.554 36 36 L 36 23 C 36 22.446 35.554 22 35 22 L 26 22 z M 12 24 L 12 27 C 12 28.19 14.89 29 18 29 C 21.11 29 24 28.19 24 27 L 24 24 C 24 25.19 21.11 26 18 26 C 14.89 26 12 25.19 12 24 z M 27 24 L 30 24 L 30 27 L 27 27 L 27 24 z M 31 24 L 34 24 L 34 27 L 31 27 L 31 24 z M 12 28 L 12 31 C 12 32.19 14.89 33 18 33 C 21.11 33 24 32.19 24 31 L 24 28 C 24 29.19 21.11 30 18 30 C 14.89 30 12 29.19 12 28 z M 27 28 L 30 28 L 30 31 L 27 31 L 27 28 z M 31 28 L 34 28 L 34 31 L 31 31 L 31 28 z M 12 32 L 12 35 C 12 36.19 14.89 37 18 37 C 21.11 37 24 36.19 24 35 L 24 32 C 24 33.19 21.11 34 18 34 C 14.89 34 12 33.19 12 32 z M 27 32 L 30 32 L 30 35 L 27 35 L 27 32 z M 31 32 L 34 32 L 34 35 L 31 35 L 31 32 z"/>
 <path style="fill:#d48ff7" d="m 18,18 c -3.11,0 -6,0.81 -6,2 v 2 c 0,1.19 2.89,2 6,2 3.11,0 6,-0.81 6,-2 v -2 c 0,-1.19 -2.89,-2 -6,-2 z m -6,5 v 3 c 0,1.19 2.89,2 6,2 3.11,0 6,-0.81 6,-2 v -3 c 0,1.19 -2.89,2 -6,2 -3.11,0 -6,-0.81 -6,-2 z m 0,4 v 3 c 0,1.19 2.89,2 6,2 3.11,0 6,-0.81 6,-2 v -3 c 0,1.19 -2.89,2 -6,2 -3.11,0 -6,-0.81 -6,-2 z m 0,4 v 3 c 0,1.19 2.89,2 6,2 3.11,0 6,-0.81 6,-2 v -3 c 0,1.19 -2.89,2 -6,2 -3.11,0 -6,-0.81 -6,-2 z"/>
 <path style="fill:#ebd9f1" d="M 26,21 C 25.446,21 25,21.446 25,22 V 35 C 25,35.554 25.446,36 26,36 H 35 C 35.554,36 36,35.554 36,35 V 22 C 36,21.446 35.554,21 35,21 Z M 27,23 H 30 V 26 H 27 Z M 31,23 H 34 V 26 H 31 Z M 27,27 H 30 V 30 H 27 Z M 31,27 H 34 V 30 H 31 Z M 27,31 H 30 V 34 H 27 Z M 31,31 H 34 V 34 H 31 Z"/>
 <path style="fill:#ffffff;opacity:0.1" d="M 14 4 C 10.676 4 8 6.676 8 10 L 8 11 C 8 7.676 10.676 5 14 5 L 28 5 L 40 17 L 40 16 L 28 4 L 14 4 z"/>
 <path style="fill:#ffffff;opacity:0.2" d="M 30 4 L 31 5 L 40 5 L 40 4 L 30 4 z"/>
</svg>
